X:1
T: The Mod
C:
R:Strathspey
Q: 128
K:A
M:4/4
L:1/16
|:E4|A3c e3f ((3e2f2g2) a3f|ec3 c3B AF3 F3E|A3c e3f ef3 a3f|ec3 c3B A6 E2|
A3c e3f ef3 a3f|ec3 c3B AF3 F3E|A3c e3f ((3e2f2g2) a3f|e2c2 c2B2 A6 e2|
fd3 a2gf ec3 a3c|db3 ca3 ((3B2c2A2) ((3G2F2E2) |F3G A3B cA3 a3f|ec3 c3B A6 e2|
fd3 a2gf ec3 a3c|db3 ca3 ((3B2c2A2) ((3G2F2E2) |A3c e3f ((3e2f2g2) a3f|eA3 Be3 a4:|
